X:57
T:Abbie Carey's Favorite
B:Terry "Cuz" Teahan "Sliabh Luachra on Parade" 1980
Z:Patrick Cavanagh
M:2/4
L:1/8
R:Polka
K:D
| fd fe | dB Af | e2 ef/e/ | df a2 | 
fd fe | dB Af | e2 ef/e/ | d2 d2 :| 
| fa fe | dB Af | e2 ef/e/ | df a2 | 
fa fe | dB Af | e2 ef/e/ | d2 d2 :|| 

